img/tariffs-check.svg

<svg width="24" height="24" viewBox="0 0 24 24" fill="none" xmlns="http://www.w3.org/2000/svg">
<path d="M16.3831 8.27344H15.2839C15.0448 8.27344 14.8175 8.38828 14.6769 8.58516L10.9925 13.6945L9.32373 11.3789C9.18311 11.1844 8.95811 11.0672 8.7167 11.0672H7.61748C7.46514 11.0672 7.37608 11.2406 7.46514 11.3648L10.3855 15.4148C10.4544 15.5111 10.5454 15.5896 10.6508 15.6437C10.7561 15.6978 10.8729 15.7261 10.9913 15.7261C11.1098 15.7261 11.2265 15.6978 11.3319 15.6437C11.4372 15.5896 11.5282 15.5111 11.5972 15.4148L16.5331 8.57109C16.6245 8.44688 16.5355 8.27344 16.3831 8.27344Z" fill="#48B798"/>
<path d="M12 1.5C6.20156 1.5 1.5 6.20156 1.5 12C1.5 17.7984 6.20156 22.5 12 22.5C17.7984 22.5 22.5 17.7984 22.5 12C22.5 6.20156 17.7984 1.5 12 1.5ZM12 20.7188C7.18594 20.7188 3.28125 16.8141 3.28125 12C3.28125 7.18594 7.18594 3.28125 12 3.28125C16.8141 3.28125 20.7188 7.18594 20.7188 12C20.7188 16.8141 16.8141 20.7188 12 20.7188Z" fill="#48B798"/>
</svg>

<svg width="24" height="24" fill="none" xmlns="http://www.w3.org/2000/svg"><path d="M16.383 8.273h-1.1a.746.746 0 0 0-.606.312l-3.684 5.11-1.67-2.316a.75.75 0 0 0-.606-.312h-1.1c-.152 0-.24.174-.152.298l2.92 4.05a.744.744 0 0 0 1.212 0l4.936-6.844a.187.187 0 0 0-.15-.298Z" fill="#48B798"/><path d="M12 1.5C6.202 1.5 1.5 6.202 1.5 12S6.202 22.5 12 22.5 22.5 17.798 22.5 12 17.798 1.5 12 1.5Zm0 19.219A8.72 8.72 0 0 1 3.281 12 8.72 8.72 0 0 1 12 3.281 8.72 8.72 0 0 1 20.719 12 8.72 8.72 0 0 1 12 20.719Z" fill="#48B798"/></svg>
